static/images/mobile/copyright/wikipedia-wordmark-ht.svg

<?xml version="1.0" encoding="UTF-8"?>
<svg width="120px" height="18px" viewBox="0 0 120 18" version="1.1" xmlns="http://www.w3.org/2000/svg" xmlns:xlink="http://www.w3.org/1999/xlink">
    <title>wikipedia-wordmark-ht</title>
    <g id="Page-1" stroke="none" stroke-width="1" fill="none" fill-rule="evenodd">
        <path d="M18.3392401,0.000836009062 C18.406498,0.000928735419 18.4727969,0.00102684322 18.5379306,0.00112909058 L18.9131018,0.00178231465 C18.9727503,0.00189615282 19.0308213,0.0020116468 19.0871086,0.00212755475 L19.4017803,0.00281803495 C19.4501086,0.00293063124 19.496241,0.00304115774 19.5399714,0.00314837259 L19.8631224,0.00399036103 C19.890585,0.00406652911 19.915027,0.00413565992 19.9362424,0.0041965116 L20.0344947,0.00448710938 L20.0920418,0.0579958887 L20.0920418,0.558757295 C20.0920418,0.697072442 20.0143027,0.765725215 19.8608435,0.765725215 C19.1076822,0.801061201 18.9532135,0.875771572 18.6775928,1.27254422 C18.5271624,1.48960814 18.2303402,1.95503356 17.9224123,2.47699655 L15.2792805,7.41999624 C15.2792805,7.41999624 15.2534608,7.47393483 15.2055156,7.57389898 L18.4352889,14.1843136 L18.6311512,14.2378224 L23.7195332,2.16200148 C23.8962132,1.67537446 23.868954,1.3300914 23.6417941,1.12716188 C23.4136245,0.929280352 23.2530982,0.812166797 22.663492,0.787936406 L22.1859514,0.763706016 C22.1273946,0.763706016 22.0718667,0.742504424 22.0183579,0.703130039 C21.9658587,0.665774854 21.9385995,0.616304473 21.9385995,0.556738096 L21.9385995,0.0539574902 L22.0112907,0.00246791016 L27.7599509,0.00246791016 L27.8185076,0.0539574902 L27.8185076,0.556738096 C27.8185076,0.693034043 27.7407685,0.761686817 27.5873093,0.761686817 C26.834148,0.795003604 26.2758394,0.95855874 25.9144028,1.25033303 C25.5519565,1.54412651 25.2692686,1.94897596 25.0663391,2.47497735 C25.0663391,2.47497735 23.6220508,5.78079287 22.0636805,9.32969476 L21.7956619,9.93988772 C20.6315567,12.5894233 19.4464429,15.2765241 18.7856199,16.7456678 C18.172793,17.912765 17.570062,17.8057474 17.0400222,16.712351 C16.6058738,15.8182167 15.8660055,14.2189836 15.1227821,12.5958997 L14.7716683,11.8279683 C14.5435739,11.3283919 14.3197341,10.8368397 14.1091215,10.3735276 L14.3201609,11.3604635 L14.2929017,11.6269978 C14.2727097,11.6916122 14.1323753,11.7531978 14.067761,11.7330058 L13.911273,11.8319465 C13.845649,11.8117545 13.6356523,11.5825754 13.6558443,11.5159419 L13.8900847,10.3000921 C13.6359084,10.8239787 13.3623508,11.3860625 13.0833718,11.9564412 L12.8372933,12.4588029 C12.7961646,12.5426352 12.7550073,12.6264577 12.7138653,12.7101764 L12.4675457,13.2104949 C11.7721423,14.620287 11.1064438,15.9459034 10.6856023,16.7264854 C9.97080574,17.9693026 9.38220917,17.806757 8.91375495,16.7587926 C7.28728998,12.9213045 3.94753447,6.18323672 2.37558788,2.40733418 C2.08482319,1.71172005 1.86574008,1.26547702 1.65877216,1.08879709 C1.45079464,0.914136358 1.01868601,0.809137998 0.36143666,0.773802012 C0.120142354,0.747552422 0,0.688995645 0,0.594093281 L0,0.0680918848 L0.0585567774,0.0166023047 C0.184459787,0.0158896461 0.367235745,0.015344672 0.591760176,0.0149377908 L1.59988279,0.0140015017 C1.67619869,0.0139745304 1.75394228,0.0139538781 1.83287723,0.0139390824 L2.56907786,0.0139515663 C2.65303409,0.0139677491 2.73747273,0.0139884014 2.82215744,0.0140130608 L4.55565261,0.0149613714 C4.63220278,0.0150194753 4.7073448,0.0150783497 4.78084233,0.0151375325 L5.73042954,0.0159905958 C5.7815743,0.0160413019 5.82989298,0.0160900043 5.87514926,0.0161362408 L6.30797836,0.0166023047 L6.36653514,0.0680918848 L6.36653514,0.568853291 C6.36653514,0.707168438 6.27869997,0.773802012 6.10605844,0.773802012 L5.45385709,0.801061201 C4.89453891,0.824281992 4.61487982,0.991875528 4.61487982,1.30182261 C4.61487982,1.44619535 4.67343659,1.68042246 4.80367494,1.99642714 C6.05557846,5.04642756 10.3796936,14.1641216 10.3796936,14.1641216 L10.5382007,14.2055152 L13.3256675,8.64631871 C12.9847843,7.89322789 12.7673967,7.41090985 12.7673967,7.41090985 L10.8511766,3.6451033 C10.8511766,3.6451033 10.4806535,2.89194199 10.3544536,2.64156129 C9.51244752,0.972693135 9.53062031,0.883848369 8.67952784,0.771782813 C8.44126234,0.740485225 8.31809118,0.710197237 8.31809118,0.592074082 L8.31809118,0.0640534863 L8.38977276,0.0125639063 L8.90227076,0.0120167033 C8.9643157,0.0119621849 9.02786439,0.0119096857 9.09272032,0.0118591309 L10.579461,0.0110576584 C10.65299,0.011030661 10.7264507,0.0110050845 10.7996466,0.0109808541 L13.348926,0.010544707 L13.480174,0.0539574902 L13.480174,0.579958887 C13.480174,0.70010124 13.394358,0.761686817 13.2196973,0.761686817 L12.8602798,0.813176397 C11.9516402,0.883848369 12.1000513,1.25538103 12.7037919,2.45781416 L14.542,6.219 L16.5756064,2.16402067 C16.8931591,1.47143534 16.8536456,1.26343987 16.7328688,1.09924218 L16.7058447,1.0645667 C16.6250768,0.967645137 16.3545041,0.813176397 15.7659075,0.788946006 L15.5347092,0.763706016 C15.4761524,0.763706016 15.421634,0.743514024 15.3681253,0.704139639 C15.3156261,0.666784453 15.2893765,0.618323672 15.2893765,0.556738096 L15.2893765,0.0559766895 L15.3610581,0.00448710938 C15.6092803,0.00274642039 15.9108337,0.00160596899 16.2399493,0.000910521313 Z M30.974516,4.78897966 L31.0017752,4.84349804 L31.0017752,5.44320021 C31.0017752,5.52497777 30.9472568,5.57949615 30.8382201,5.57949615 L30.2657771,5.63401453 C29.4207432,5.7157921 29.1208911,5.93386562 29.1208911,6.47904941 L29.1208911,15.5563595 C29.1208911,16.1560617 29.393484,16.5104311 30.2657771,16.5922087 L30.8382201,16.6467271 C30.9199976,16.6467271 31.0017752,16.7012455 31.0017752,16.8102822 L31.0017752,17.3827252 L30.974516,17.4372436 C30.974516,17.4372436 28.9028176,17.3827252 28.0577828,17.3827252 C27.2945265,17.3827252 25.1683087,17.4372436 25.1683087,17.4372436 L25.1137903,17.3827252 L25.1137903,16.8102822 C25.1137903,16.7012455 25.1955689,16.6467271 25.3046046,16.6467271 L25.8497884,16.5922087 C26.7493417,16.5104311 27.0219336,16.0742841 27.0219336,15.5563595 L27.0219336,6.47904941 C27.0219336,5.87934724 26.6948233,5.7157921 25.8497884,5.63401453 L25.3046046,5.57949615 C25.1955679,5.57949615 25.1137903,5.55223696 25.1137903,5.4704594 L25.1137903,4.84349804 L25.1410495,4.78897966 C25.1410495,4.78897966 27.2945265,4.84349804 28.1395603,4.84349804 L28.2480467,4.84317035 C29.0620361,4.83865446 30.974516,4.78897966 30.974516,4.78897966 Z M36.4314181,11.5219995 C37.0311192,11.5219995 37.4672673,11.6582954 37.8761551,12.2034792 L40.9019251,15.9652473 C41.2835538,16.4013944 41.310813,16.7012455 41.310813,17.0556149 L41.310813,17.3827252 L41.3380722,17.4099844 C41.3380722,17.4099844 42.319404,17.3827252 43.0008827,17.3827252 C43.764139,17.3827252 45.2088771,17.4099844 45.2088771,17.4099844 L45.2906546,17.3827252 L45.2906546,16.8102822 C45.2906546,16.7285046 45.1816179,16.6739863 45.0998403,16.6467271 L44.9635444,16.6194679 C44.4183606,16.5104311 43.76414,16.346876 43.4370298,15.9652473 L39.3208921,11.0040749 C39.1845962,10.8405197 39.0755594,10.7042238 39.0755594,10.5406686 C39.0755594,10.3225951 39.2391146,10.022744 39.7025208,9.53207863 L42.0468111,6.83341887 C43.0281409,5.7157921 43.764141,5.66127372 44.8272484,5.57949615 C44.9635444,5.57949615 45.0453219,5.52497777 45.0453219,5.44320021 L45.0453219,4.81623885 L44.9635444,4.78897966 C44.9635444,4.78897966 43.764139,4.84349804 43.0554011,4.84349804 C42.2648856,4.84349804 40.0568903,4.78897966 40.0568903,4.78897966 L40.0296311,4.81623885 L40.0296311,5.44320021 C40.0296311,5.52497777 40.0841495,5.55223696 40.1931862,5.57949615 C40.738369,5.66127372 40.9837027,5.90660643 40.9837027,6.12467994 C40.9837027,6.64260454 40.1386668,7.65119455 39.0483003,8.85059889 C37.8488969,10.1317808 37.3309703,10.595187 36.4314181,10.595187 L36.4314181,6.47904941 C36.4314181,5.93386562 36.7312702,5.79756967 37.576304,5.63401453 L37.8761551,5.57949615 C37.9851919,5.55223696 38.0397102,5.52497777 38.0397102,5.44320021 L38.0397102,4.84349804 L38.0124511,4.78897966 C38.0124511,4.78897966 36.2951211,4.84349804 35.5318648,4.84349804 C34.686831,4.84349804 32.4515764,4.78897966 32.4515764,4.78897966 L32.4243172,4.84349804 L32.4243172,5.4704594 C32.4243172,5.55223696 32.5060948,5.57949615 32.6151315,5.57949615 L33.1603153,5.63401453 C34.0326084,5.7157921 34.3324605,5.87934724 34.3324605,6.47904941 L34.3324605,15.5563595 C34.3324605,16.0742841 33.97809,16.5104311 33.1603153,16.5922087 L32.6151315,16.6467271 C32.5060948,16.6467271 32.4243172,16.7012455 32.4243172,16.8102822 L32.4243172,17.3827252 L32.4788356,17.4372436 C32.4788356,17.4372436 34.7140901,17.3827252 35.4773464,17.3827252 C36.2951211,17.3827252 38.0124511,17.4372436 38.0124511,17.4372436 L38.0397102,17.3827252 L38.0397102,16.8102822 C38.0397102,16.7012455 37.9579327,16.6739863 37.8761551,16.6467271 L37.576304,16.5922087 C36.7857885,16.4559127 36.4314181,16.1560617 36.4314181,15.5563595 L36.4314181,11.5219995 M50.3970197,6.47904941 C50.3970197,5.93386562 50.6968718,5.7157921 51.5419056,5.63401453 L52.1143486,5.57949615 C52.2233854,5.57949615 52.2779037,5.52497777 52.2779037,5.44320021 L52.2779037,4.84349804 L52.2506445,4.78897966 C52.2506445,4.78897966 50.1516859,4.84349804 49.4156888,4.84349804 C48.570655,4.84349804 46.417178,4.78897966 46.417178,4.78897966 L46.3899188,4.84349804 L46.3899188,5.4704594 C46.3899188,5.55223696 46.4716964,5.57949615 46.5807331,5.57949615 L47.1259169,5.63401453 C47.9709508,5.7157921 48.2980621,5.87934724 48.2980621,6.47904941 L48.2980621,15.5563595 C48.2980621,16.0742841 48.0254692,16.5104311 47.1259169,16.5922087 L46.5807331,16.6467271 C46.4716964,16.6467271 46.3899188,16.7012455 46.3899188,16.8102822 L46.3899188,17.3827252 L46.4444372,17.4372436 C46.4444372,17.4372436 48.570655,17.3827252 49.3339113,17.3827252 C50.1789451,17.3827252 52.2506445,17.4372436 52.2506445,17.4372436 L52.2779037,17.3827252 L52.2779037,16.8102822 C52.2779037,16.7012455 52.1961262,16.6467271 52.1143486,16.6467271 L51.5419056,16.5922087 C50.6696126,16.5104311 50.3970197,16.1560617 50.3970197,15.5563595 L50.3970197,6.47904941 M57.6530292,6.53356778 C57.6530292,5.82482886 57.9801405,5.57949615 59.2885806,5.57949615 C60.787834,5.57949615 61.8509444,6.09742075 61.8509444,8.44171105 C61.8509444,10.5406686 61.0604259,11.5219995 59.4248765,11.5219995 C58.8796927,11.5219995 58.198212,11.4947403 57.6530292,11.2766668 L57.6530292,6.53356778 M55.5540716,15.6926554 C55.5540716,16.21058 55.2814787,16.4559127 54.4364449,16.5649495 L53.8640019,16.6467271 C53.7549651,16.6739863 53.7004467,16.7012455 53.7004467,16.8102822 L53.7004467,17.3827252 L53.7277059,17.4372436 C53.7277059,17.4372436 55.7721451,17.3827252 56.5354025,17.3827252 C57.3804363,17.3827252 59.5611725,17.4372436 59.5611725,17.4372436 L59.5884317,17.3827252 L59.5884317,16.8102822 C59.5884317,16.7012455 59.5066541,16.6739863 59.3976173,16.6467271 L58.8524336,16.5649495 C57.9801395,16.4286536 57.6530292,16.2923576 57.6530292,15.6926554 L57.6530292,12.0399241 C58.1436936,12.2579976 58.6888784,12.312516 59.3703582,12.312516 C63.241159,12.312516 64.0316796,9.75015214 64.0316796,8.11460077 C64.0316796,6.69712292 63.3229366,4.78897966 59.4521357,4.78897966 C58.4435467,4.78897966 57.3531771,4.84349804 56.5899208,4.84349804 C55.7994043,4.84349804 54.1911111,4.78897966 53.7822243,4.78897966 L53.7277059,4.81623885 L53.7277059,5.44320021 C53.7277059,5.49771859 53.7549651,5.57949615 53.9185203,5.57949615 C55.1997001,5.66127372 55.5540716,5.68853291 55.5540716,6.53356778 L55.5540716,15.6926554 M72.7664971,17.3827252 C73.5842718,17.3827252 75.192565,17.4372436 75.192565,17.4372436 L75.2470834,17.3827252 L75.7922671,14.2479184 L75.1107874,14.1661408 C74.7836771,15.5836187 74.0204188,16.4559127 72.6302012,16.4559127 L70.0405782,16.4559127 C69.5499138,16.4559127 69.2500617,15.9379881 69.2500617,15.4200635 L69.2500617,11.2494076 L71.2945009,11.2494076 C72.0032388,11.2494076 72.2485725,11.5492586 72.3576093,12.0944424 L72.4939052,12.6941446 C72.4939052,12.7759222 72.5484236,12.8304406 72.6847195,12.8304406 L73.1481258,12.8304406 L73.2026441,12.7759222 C73.1481258,12.1489608 73.039089,11.5765178 73.039089,10.8950381 C73.039089,10.2408176 73.1481258,9.47756025 73.2026441,8.87785808 C73.2026441,8.8233397 73.2026441,8.79608051 73.1481258,8.79608051 L72.6847195,8.79608051 C72.5756828,8.79608051 72.5211644,8.85059889 72.5211644,8.93237646 L72.3576093,9.50481944 C72.2485725,10.0500032 72.0577572,10.3771135 71.2945009,10.3771135 L69.2500617,10.3771135 L69.2500617,6.42453103 C69.2500617,5.96112481 69.5226546,5.77031048 70.0405782,5.77031048 L72.2213133,5.77031048 C73.9658994,5.77031048 74.483826,7.21504752 74.7836771,8.22363753 L75.4651569,8.11460077 C75.2743425,7.07875157 75.0835282,6.01564319 75.056269,4.84349804 L75.0017506,4.78897966 C75.0017506,4.78897966 73.0663472,4.84349804 72.2485725,4.84349804 L68.2414717,4.84349804 C67.423697,4.84349804 65.2974792,4.78897966 65.2974792,4.78897966 L65.27022,4.84349804 L65.27022,5.4704594 C65.27022,5.49771859 65.27022,5.55223696 65.4337751,5.57949615 L66.0607365,5.63401453 C66.8239928,5.68853291 67.1511041,5.79756967 67.1511041,6.42453103 L67.1511041,15.4200635 C67.1511041,15.9652473 66.9057704,16.5104311 66.0607365,16.5922087 L65.4337751,16.6467271 C65.2974792,16.6467271 65.27022,16.7285046 65.27022,16.783023 L65.27022,17.3827252 L65.2974792,17.4372436 C65.2974792,17.4372436 67.1783643,17.3827252 67.996139,17.3827252 L72.7664971,17.3827252 M77.3191614,16.8102822 L77.3191614,17.3827252 L77.3464205,17.4372436 C77.3464205,17.4372436 79.41812,17.3827252 80.2358946,17.3827252 C81.0809285,17.3827252 82.0350032,17.4372436 84.2157363,17.4372436 C87.2415033,17.4372436 90.6216458,16.0197657 90.6216458,11.2494076 C90.6216458,7.62393536 88.3863872,4.78897966 83.8341076,4.78897966 C83.1253697,4.78897966 80.7538182,4.84349804 80.2358946,4.84349804 C79.7452292,4.84349804 77.3464205,4.78897966 77.3464205,4.78897966 L77.3191614,4.84349804 L77.3191614,5.44320021 C77.3191614,5.52497777 77.4009389,5.57949615 77.5099757,5.57949615 L78.1096779,5.63401453 C79.0092301,5.7157921 79.2000454,5.7157921 79.2000454,6.42453103 L79.2000454,15.4200635 C79.2000454,16.2650984 78.9274525,16.5104311 78.1096779,16.5922087 L77.4827165,16.6467271 C77.3736797,16.6467271 77.3191614,16.7285046 77.3191614,16.8102822 M81.299003,15.4200635 L81.299003,6.42453103 C81.299003,5.74305129 81.9804838,5.57949615 83.0435911,5.57949615 C87.6231299,5.57949615 88.2500963,8.87785808 88.2500963,11.7128138 C88.2500963,15.5291003 86.5600236,16.6467271 83.5615157,16.6467271 C81.4898194,16.6467271 81.299003,16.1833209 81.299003,15.4200635 M111.416384,0.120591064 C111.782869,0.120591064 111.915126,0.384096563 112.124113,0.90908836 L117.505279,15.1363661 C117.873783,16.1611097 118.398775,16.5538439 119.448759,16.6588423 L119.737504,16.6840823 C119.868752,16.6840823 120,16.762831 120,16.8950886 L120,17.3928212 L119.921251,17.4453204 C119.921251,17.4453204 119.172369,17.4258689 118.355406,17.410646 L117.827536,17.4016753 C117.478303,17.3963939 117.14336,17.3928212 116.876299,17.3928212 C116.582303,17.3928212 116.118863,17.3981971 115.624528,17.4055083 L115.250149,17.4113009 C114.310543,17.4264207 113.384094,17.4453204 113.384094,17.4453204 L113.358854,17.3928212 L113.358854,16.8950886 C113.358854,16.762831 113.411353,16.6840823 113.54462,16.6840823 L114.279609,16.6315831 C115.276083,16.5538439 115.645597,16.2368296 115.382091,15.5028507 L113.780866,11.0656604 L108.320952,11.0656604 C107.690962,11.0656604 107.533464,11.1706588 107.403226,11.5108939 L105.87974,15.318094 C105.617244,15.9763529 105.958489,16.5548535 106.929723,16.6336023 L107.690962,16.6871111 C107.79596,16.6871111 107.900958,16.7658598 107.900958,16.8960982 L107.900958,17.3948404 L107.848459,17.4483492 C107.848459,17.4483492 104.987254,17.3948404 104.357264,17.3948404 C104.141422,17.3948404 103.826209,17.4001764 103.495909,17.4074784 L103.163703,17.4153109 C102.556885,17.4304141 101.993791,17.4483492 101.993791,17.4483492 L101.940282,17.3948404 L101.940282,16.8960982 C101.940282,16.7658598 102.019031,16.6871111 102.151289,16.6871111 C103.30728,16.6083623 103.961501,16.397356 104.696489,14.7173822 L110.522888,1.0665859 C110.810624,0.384096563 111.021631,0.120591064 111.416384,0.120591064 Z M103.807375,4.78897966 L103.834634,4.84349804 L103.834078,5.46648575 C103.83074,5.51273896 103.807375,5.55613113 103.64382,5.57949615 L103.180414,5.63401453 C102.30812,5.74305129 102.171824,5.90660643 101.762936,6.64260454 L98.7644251,11.9308873 L98.7644251,15.7199146 C98.7644251,16.3196168 99.0642762,16.5104311 99.909311,16.5922087 L100.481754,16.6467271 C100.590791,16.6467271 100.672568,16.7285046 100.672568,16.8102822 L100.672568,17.3827252 L100.61805,17.4372436 C100.61805,17.4372436 98.5463516,17.3827252 97.7013167,17.3827252 C96.9380594,17.3827252 94.8118426,17.4372436 94.8118426,17.4372436 L94.7573242,17.3827252 L94.7573242,16.8102822 C94.7573242,16.7285046 94.8391018,16.6467271 94.9481386,16.6467271 L95.4933223,16.5922087 C96.3383572,16.5104311 96.6654675,16.2650984 96.6654675,15.7199146 L96.6654675,12.0399241 L93.2308096,6.39727184 C92.8764402,5.82482886 92.4402931,5.66127372 91.6497776,5.57949615 C91.5680001,5.57949615 91.4317041,5.55223696 91.4317041,5.44320021 L91.4317041,4.84349804 L91.4862225,4.78897966 C91.7315552,4.78897966 93.4216239,4.84349804 93.721475,4.84349804 C93.857771,4.84349804 96.1475429,4.81623885 96.4746532,4.78897966 L96.5019123,4.81623885 L96.5019123,5.44320021 C96.5019123,5.49771859 96.447394,5.57949615 96.3656164,5.57949615 L95.7659142,5.63401453 C95.1116937,5.68853291 95.2207304,5.93386562 95.4933223,6.37001265 L98.2465005,10.8677789 L98.3010189,10.8677789 L100.836123,6.37001265 C101.190493,5.7157921 101.190493,5.68853291 100.536272,5.63401453 L99.909311,5.57949615 C99.8275335,5.57949615 99.8002743,5.49771859 99.8002743,5.44320021 L99.8002743,4.81623885 L99.8547927,4.78897966 C100.154644,4.78897966 101.681158,4.84349804 101.95375,4.84349804 C102.144565,4.84349804 103.398487,4.81623885 103.807375,4.78897966 Z M110.814663,2.95655637 L110.762164,2.95655637 L108.137205,9.62395219 C108.032206,9.88745769 108.214944,9.96519686 108.792435,9.96519686 L113.360873,9.96519686 L110.814663,2.95655637 Z" id="wikipedia-wordmark-ht" fill="#000000" fill-rule="nonzero"></path>
    </g>
</svg>

<svg xmlns="http://www.w3.org/2000/svg" width="120" height="18"><path fill="#000" fill-rule="nonzero" d="m18.34 0 .198.001h.375l.174.001h.315l.138.001.323.001H20.034l.058.054v.5c0 .14-.078.208-.231.208-.753.035-.908.11-1.183.507-.15.217-.448.682-.756 1.204L15.28 7.42l-.073.154 3.23 6.61.195.054L23.72 2.162c.176-.487.149-.832-.078-1.035-.228-.198-.389-.315-.979-.34l-.477-.023a.28.28 0 0 1-.168-.06.174.174 0 0 1-.08-.147V.054l.073-.052h5.749l.059.052v.503c0 .136-.078.205-.232.205-.753.033-1.311.197-1.673.488-.362.294-.645.699-.848 1.225 0 0-1.444 3.306-3.002 6.855l-.268.61c-1.164 2.65-2.35 5.337-3.01 6.806-.613 1.167-1.216 1.06-1.746-.034a244.902 244.902 0 0 1-1.917-4.116l-.351-.768-.663-1.454.211.986-.027.267c-.02.065-.16.126-.225.106l-.157.099c-.065-.02-.275-.25-.255-.316l.234-1.216c-.254.524-.528 1.086-.807 1.656l-.246.503c-.04.084-.082.167-.123.251l-.246.5a128.764 128.764 0 0 1-1.782 3.516c-.715 1.243-1.304 1.08-1.772.033C7.287 12.92 3.948 6.183 2.376 2.407c-.291-.695-.51-1.142-.717-1.318C1.45.914 1.019.809.36.774.121.748 0 .689 0 .594V.068L.059.017.592.015 1.6.014h1.222l1.734.001h.225l.95.001h.577l.059.052v.5c0 .14-.088.206-.26.206L5.453.8c-.56.023-.84.19-.84.5 0 .145.06.38.19.695 1.252 3.05 5.576 12.168 5.576 12.168l.158.042 2.788-5.56-.559-1.235-1.916-3.766s-.37-.753-.497-1.003C9.512.972 9.531.884 8.68.772 8.44.74 8.318.71 8.318.592V.064L8.39.013l.512-.001h1.677L10.8.01h2.55l.131.043V.58c0 .12-.086.182-.26.182l-.36.051c-.908.07-.76.442-.156 1.645l1.838 3.761 2.034-4.055c.317-.693.278-.9.157-1.065l-.027-.034c-.08-.097-.351-.252-.94-.276l-.231-.025a.276.276 0 0 1-.167-.06.172.172 0 0 1-.079-.147V.056l.072-.052.879-.003ZM30.974 4.79l.027.054v.6c0 .082-.055.136-.164.136l-.572.055c-.845.082-1.145.3-1.145.845v9.077c0 .6.272.954 1.145 1.036l.572.055c.082 0 .164.054.164.163v.573l-.027.054s-2.072-.054-2.917-.054c-.763 0-2.89.054-2.89.054l-.054-.054v-.573c0-.109.082-.163.19-.163l.546-.055c.9-.082 1.172-.518 1.172-1.036V6.48c0-.6-.327-.763-1.172-.845l-.545-.055c-.11 0-.191-.027-.191-.109v-.627l.027-.054s2.154.054 2.999.054h.108c.814-.004 2.727-.054 2.727-.054Zm5.456 6.733c.6 0 1.036.136 1.445.681l3.026 3.762c.382.436.409.736.409 1.09v.328l.027.027s.981-.027 1.663-.027c.763 0 2.208.027 2.208.027l.082-.027v-.573c0-.081-.11-.136-.191-.163l-.136-.028c-.546-.109-1.2-.272-1.527-.654l-4.116-4.96c-.136-.164-.245-.3-.245-.464 0-.218.163-.518.627-1.009l2.344-2.699c.981-1.117 1.717-1.172 2.78-1.254.137 0 .218-.054.218-.136v-.627l-.081-.027s-1.2.054-1.909.054c-.79 0-2.998-.054-2.998-.054l-.027.027v.627c0 .082.054.11.163.136.545.082.79.328.79.546 0 .518-.844 1.526-1.935 2.726-1.2 1.28-1.717 1.744-2.617 1.744V6.48c0-.545.3-.681 1.145-.845l.3-.055c.11-.027.164-.054.164-.136v-.6l-.028-.054s-1.717.054-2.48.054c-.845 0-3.08-.054-3.08-.054l-.028.054v.627c0 .082.082.11.191.11l.545.054c.873.082 1.172.245 1.172.845v9.077c0 .518-.354.954-1.172 1.036l-.545.055c-.109 0-.19.054-.19.163v.573l.054.054s2.235-.054 2.998-.054c.818 0 2.535.054 2.535.054l.028-.054v-.573c0-.109-.082-.136-.164-.163l-.3-.055c-.79-.136-1.145-.436-1.145-1.036v-4.034m13.966-5.043c0-.545.3-.763 1.145-.845l.572-.055c.11 0 .164-.054.164-.136v-.6l-.027-.054s-2.1.054-2.835.054c-.845 0-2.999-.054-2.999-.054l-.027.054v.627c0 .082.082.11.19.11l.546.054c.845.082 1.172.245 1.172.845v9.077c0 .518-.273.954-1.172 1.036l-.545.055c-.11 0-.191.054-.191.163v.573l.054.054s2.127-.054 2.89-.054c.845 0 2.917.054 2.917.054l.027-.054v-.573c0-.109-.082-.163-.164-.163l-.572-.055c-.872-.082-1.145-.436-1.145-1.036V6.48m7.256.055c0-.71.327-.955 1.636-.955 1.499 0 2.562.518 2.562 2.863 0 2.099-.79 3.08-2.426 3.08-.545 0-1.227-.027-1.772-.245V6.534m-2.099 9.159c0 .518-.273.763-1.118.872l-.572.082c-.109.027-.164.054-.164.163v.573l.028.054s2.044-.054 2.807-.054c.845 0 3.026.054 3.026.054l.027-.054v-.573c0-.109-.081-.136-.19-.163l-.546-.082c-.872-.136-1.199-.273-1.199-.872V12.04c.49.218 1.036.273 1.717.273 3.871 0 4.662-2.563 4.662-4.198 0-1.418-.71-3.326-4.58-3.326-1.008 0-2.099.054-2.862.054-.79 0-2.399-.054-2.808-.054l-.054.027v.627c0 .055.027.136.19.136 1.282.082 1.636.11 1.636.955v9.159m17.212 1.69c.818 0 2.427.054 2.427.054l.054-.054.545-3.135-.681-.082c-.327 1.418-1.09 2.29-2.48 2.29h-2.59c-.491 0-.79-.518-.79-1.036v-4.17h2.044c.708 0 .954.3 1.063.844l.136.6c0 .082.054.136.19.136h.464l.055-.054c-.055-.627-.164-1.2-.164-1.881 0-.654.11-1.417.164-2.017 0-.055 0-.082-.055-.082h-.463c-.11 0-.164.055-.164.136l-.163.573c-.11.545-.3.872-1.063.872H69.25V6.425c0-.464.273-.655.79-.655h2.181c1.745 0 2.263 1.445 2.563 2.454l.681-.11c-.19-1.035-.381-2.098-.409-3.27l-.054-.055s-1.936.054-2.753.054H68.24c-.817 0-2.944-.054-2.944-.054l-.027.054v.627c0 .028 0 .082.164.11l.627.054c.763.055 1.09.164 1.09.79v8.996c0 .545-.245 1.09-1.09 1.172l-.627.055c-.137 0-.164.082-.164.136v.6l.027.054s1.881-.054 2.7-.054h4.77m4.552-.573v.573l.027.054s2.072-.054 2.89-.054c.845 0 1.799.054 3.98.054 3.026 0 6.406-1.417 6.406-6.188 0-3.625-2.236-6.46-6.788-6.46-.709 0-3.08.054-3.598.054-.49 0-2.89-.054-2.89-.054l-.027.054v.6c0 .082.082.136.191.136l.6.055c.9.082 1.09.082 1.09.79v8.996c0 .845-.273 1.09-1.09 1.172l-.627.055c-.11 0-.164.082-.164.163m3.98-1.39V6.425c0-.682.681-.846 1.745-.846 4.58 0 5.206 3.299 5.206 6.134 0 3.816-1.69 4.934-4.688 4.934-2.072 0-2.263-.464-2.263-1.227M111.416.12c.367 0 .5.264.708.79l5.381 14.226c.369 1.025.894 1.418 1.944 1.523l.289.025c.13 0 .262.079.262.211v.498l-.079.052s-.749-.02-1.566-.034l-.527-.01a66.51 66.51 0 0 0-.952-.008 97.5 97.5 0 0 0-1.251.013l-.375.005c-.94.015-1.866.034-1.866.034l-.025-.052v-.498c0-.132.052-.21.186-.21l.735-.053c.996-.078 1.366-.395 1.102-1.13l-1.601-4.436h-5.46c-.63 0-.788.105-.918.445l-1.523 3.807c-.263.658.078 1.237 1.05 1.316l.761.053c.105 0 .21.079.21.21v.498l-.053.053s-2.86-.053-3.49-.053c-.217 0-.532.005-.862.012l-.332.008c-.607.015-1.17.033-1.17.033l-.054-.053v-.499c0-.13.079-.209.211-.209 1.156-.079 1.81-.29 2.545-1.97l5.827-13.65c.288-.683.499-.946.893-.946Zm-7.609 4.669.028.054v.623c-.004.047-.028.09-.191.113l-.464.055c-.872.11-1.008.273-1.417 1.009l-2.999 5.288v3.789c0 .6.3.79 1.145.872l.573.055c.109 0 .19.082.19.163v.573l-.054.054s-2.072-.054-2.917-.054c-.763 0-2.89.054-2.89.054l-.054-.054v-.573c0-.081.082-.163.191-.163l.545-.055c.845-.082 1.172-.327 1.172-.872v-3.68l-3.434-5.643c-.355-.572-.79-.736-1.581-.818-.082 0-.218-.027-.218-.136v-.6l.054-.054c.246 0 1.936.054 2.235.054.137 0 2.427-.027 2.754-.054l.027.027v.627c0 .055-.055.136-.136.136l-.6.055c-.654.055-.545.3-.273.736l2.754 4.498h.054l2.535-4.498c.354-.654.354-.681-.3-.736l-.627-.055c-.081 0-.109-.081-.109-.136v-.627l.055-.027c.3 0 1.826.054 2.099.054.19 0 1.444-.027 1.853-.054Zm7.008-1.832h-.053l-2.625 6.667c-.105.263.078.341.655.341h4.569l-2.546-7.008Z"/></svg>
